X:4010
T:Mrs MacLeod of Raasay aka Miss MacLeod's Reel aka The Gray Old Lady of Raasay
H: 
B: 
C: Traditional.  Sir Alexander MacDonald. Versions: Scots Guards I (205) PM J MacKay.  thesession.org/tunes/340
O:Arranged by Kevin Fraser
Z:Kevin Fraser
Q:1/4=90
M:2/2
L:1/8
R:Reel
V:gstem=up stem=down
I:MIDI=program 110
K:HP
U: R = ///
U: r = //
U: V = !accent!
% V:1 gstem=up stem=down name="Melody" sname=Melody
% V:2 gstem=up stem=down name="Harmony" sname=Harmony % vol 60
% V:3 gstem=up stem=down name="Harmony 2" sname=Harmony2 % vol 60
%%MIDI gracedivider 4
%%MIDI gchord
%%MIDI beatstring 
% I:MIDI=program 110
%%MIDI gracedivider 8
%%MIDI gchord
%%MIDI beatstring
% %MIDI program 109 #bagpipes
%%MIDI vol 100
% %MIDI droneon
% %score {1 (2 3 4)}
%%landscape 
||        "A"{AGAG}A2 {ag}a2     {fg}f>e{g}f<a     | c>{d}c{e}c>B {g}c>{d}c{e}c>B | {AGAG}A2 {ag}a2     {fg}f>e{g}f<a       | c>{d}c{e}c>A   "Bm"{g}B>{d}B{e}B>c |
|         "A"{AGAG}A2 {ag}a2     {fg}f>e{g}f<a     | c>{d}c{e}c>B {g}c>{d}c{e}c>e | "D"{g}f2 {g}f>g     "Bm"{a}f>e{g}f>g | "E7"a>f{g}e>c  {g}B>{d}B{e}B>c    ||
||        "A"{AGAG}A2 {g}c<{d}A  {gef}e>c{G}c>a | c>{d}c{e}c>B {g}c>{d}c{e}c>B | {AGAG}A2 {g}c<{d}A  {gef}e>c{G}c>a   | c>{d}c{e}c>A   {g}B>{d}B{e}B>c     |
|         "A"{AGAG}A2 {g}c<{d}A  {gef}e>c{G}c>a | c>{d}c{e}c>B {g}c>{d}c{e}c>e | "D"{g}f2 {g}f>g     "Bm"{a}f>e{g}f>g | "E7"a>f{g}e>c  {g}B>{d}B{e}B>c    ||
